svgs/light/user-bounty-hunter.svg

<svg xmlns="http://www.w3.org/2000/svg" viewBox="0 0 448 512"><!-- Font Awesome Pro 6.0.0-alpha2 by @fontawesome - https://fontawesome.com License - https://fontawesome.com/license (Commercial License) --><path d="M320 352H128C57.307 352 0 409.307 0 480C0 497.672 14.326 512 32 512H416C433.674 512 448 497.672 448 480C448 409.307 390.693 352 320 352ZM184.727 480L224 439.109L263.273 480H184.727ZM307.617 480L235.531 404.922C229.531 398.641 218.469 398.641 212.469 404.922L140.383 480H32C32 427.064 75.064 384 128 384H320C372.936 384 416 427.064 416 480H307.617ZM89.301 293.91L207.846 320H240.154L358.699 293.91C374.176 290.502 384.869 276.479 383.943 260.803L377.037 143.801C372.752 63.188 305.506 0 224 0C170.416 0 123.42 27.6 96 69.219V32C104.836 32 112 24.836 112 16C112 7.162 104.836 0 96 0H80C71.164 0 64 7.162 64 16V264C64 264 64.289 263.721 64.398 263.615C64.859 278.092 74.787 290.715 89.301 293.91ZM351.82 262.656L282.258 277.967C291.133 231.869 326.279 206.398 347.924 194.898L351.82 262.656ZM345.943 160.465C310.229 175.426 256.617 215.787 249.516 285.174L240 287.268V160H345.916L345.943 160.465ZM224 32C282.369 32 331.066 72.953 342.402 128H105.584C116.859 73.02 165.582 32 224 32ZM102.062 160H208V287.271L198.486 285.184C191.387 215.775 137.748 175.41 102.035 160.455L102.062 160ZM100.004 194.859C121.646 206.344 156.875 231.832 165.748 277.998L96 262.689L100.004 194.859Z"/></svg>

<svg xmlns="http://www.w3.org/2000/svg" viewBox="0 0 448 512"><!--! Font Awesome Pro 6.3.0 by @fontawesome - https://fontawesome.com License - https://fontawesome.com/license (Commercial License) Copyright 2023 Fonticons, Inc. --><path d="M320 352H128c-70.69 0-128 57.31-128 128c0 17.67 14.33 32 32 32h384c17.67 0 32-14.33 32-32C448 409.3 390.7 352 320 352zM184.7 480L224 439.1L263.3 480H184.7zM307.6 480l-72.09-75.08c-6-6.281-17.06-6.281-23.06 0L140.4 480H32c0-52.94 43.06-96 96-96h192c52.94 0 96 43.06 96 96H307.6zM89.3 293.9L207.8 320h32.31l118.5-26.09c15.48-3.408 26.17-17.43 25.24-33.11l-6.906-117C372.8 63.19 305.5 0 224 0C170.4 0 123.4 27.6 96 69.22V32c8.836 0 16-7.164 16-16C112 7.162 104.8 0 96 0H80C71.16 0 64 7.162 64 16v248l.3984-.3848C64.86 278.1 74.79 290.7 89.3 293.9zM351.8 262.7l-69.56 15.31c8.875-46.1 44.02-71.57 65.67-83.07L351.8 262.7zM345.9 160.5c-35.71 14.96-89.33 55.32-96.43 124.7L240 287.3V160h105.9L345.9 160.5zM224 32c58.37 0 107.1 40.95 118.4 96H105.6C116.9 73.02 165.6 32 224 32zM102.1 160H208v127.3L198.5 285.2C191.4 215.8 137.7 175.4 102 160.5L102.1 160zM100 194.9C121.6 206.3 156.9 231.8 165.7 277.1L96 262.7L100 194.9z"/></svg>
